images/LOGO3_animated.svg

<svg xmlns="http://www.w3.org/2000/svg" width="100%" height="100%" viewBox="0 0 2048 2732" fill-rule="evenodd" stroke-linecap="round" stroke-linejoin="round" stroke-miterlimit="1.5"><style><![CDATA[.A{animation:kAUWGeMX_draw 1466ms ease-in-out 0ms forwards}.B{animation:kAUWGeMX_draw 1466ms ease-in-out 45ms forwards}.C{animation:kAUWGeMX_draw 1466ms ease-in-out 91ms forwards}.D{animation:kAUWGeMX_draw 1466ms ease-in-out 137ms forwards}.E{animation:kAUWGeMX_draw 1466ms ease-in-out 183ms forwards}.F{animation:kAUWGeMX_draw 1466ms ease-in-out 229ms forwards}.G{animation:kAUWGeMX_draw 1466ms ease-in-out 275ms forwards}.H{animation:kAUWGeMX_draw 1466ms ease-in-out 320ms forwards}.I{animation:kAUWGeMX_draw 1466ms ease-in-out 366ms forwards}.J{animation:kAUWGeMX_draw 1466ms ease-in-out 412ms forwards}.K{animation:kAUWGeMX_draw 1466ms ease-in-out 458ms forwards}.L{animation:kAUWGeMX_draw 1466ms ease-in-out 504ms forwards}.M{animation:kAUWGeMX_draw 1466ms ease-in-out 550ms forwards}.N{animation:kAUWGeMX_draw 1466ms ease-in-out 595ms forwards}.O{animation:kAUWGeMX_draw 1466ms ease-in-out 641ms forwards}.P{animation:kAUWGeMX_draw 1466ms ease-in-out 687ms forwards}.Q{animation:kAUWGeMX_draw 1466ms ease-in-out 733ms forwards}@keyframes kAUWGeMX_draw{100%{stroke-dashoffset:0}} @keyframes kAUWGeMX_fade{0%{stroke-opacity:1}93.75%{stroke-opacity:1}100%{stroke-opacity:0}}.R{stroke:#000}]]></style><g transform="matrix(2.05441 0 0 2.05441 -941.037 -1304.52)" class="R"><g fill="#010001" stroke-width=".49"><path d="M1068.9 1132.17l.37-419.502 83.1-74.62-1.12 531.392-82.36-37.27z" class="A" stroke-dasharray="1153 1155" stroke-dashoffset="1154"/><path d="M1163.64 1168.37l-.93-528.99 37.48 72.15V886.29s1.5-1.347 1.94-2.234c.58-1.19.8-3.358 1.52-4.915 1.02-2.195 3.14-5.827 4.56-8.25l3.92-6.287 5.7-7.19c2.76-2.975 6.93-7.51 10.92-10.665 4.5-3.558 10.92-7.702 16.07-10.683 4.75-2.75 9.68-5.246 14.8-7.205 5.38-2.055 12.3-3.915 17.46-5.124 4.4-1.036 8.9-1.77 13.43-2.13 6.62-.53 18.25-1.376 26.32-1.05 7.42.3 16.1 1.865 22.1 3.01 4.7.9 9.33 2.243 13.84 3.86 5.55 2 13.38 4.572 19.47 8.084 6.62 3.823 14.58 10.03 20.28 14.855 5.04 4.267 9.9 8.845 13.9 14.105 4.77 6.294 10.73 16.498 14.73 23.66 3.47 6.232 6.78 12.612 9.24 19.312 2.56 6.98 4.43 14.965 6.12 22.58 1.74 7.85 3.37 17.47 4.32 24.518.8 5.89 1.23 11.834 1.36 17.775.14 6.42-.16 13.925-.5 20.743-.34 6.732-.77 13.472-1.54 20.162-.8 6.88-1.58 14.37-3.23 21.13-1.62 6.65-4.1 13.1-6.66 19.44-2.64 6.52-6.28 14.3-9.18 19.7-2.38 4.42-5.25 8.58-8.2 12.65-3.84 5.33-9.45 13.86-14.84 19.34-5.16 5.26-11.28 9.54-17.47 13.55-6.55 4.24-16.13 9.27-21.85 11.9-3.95 1.82-8.25 2.75-12.45 3.88-4.8 1.3-10.75 3.2-16.3 3.9-7.78.96-21.84 1.98-30.42 1.86-7.06-.1-14.13-1.04-21.03-2.55-7.04-1.53-14.6-4.04-21.2-6.65-6.36-2.52-12.74-5.57-18.43-9.04a107.87 107.87 0 0 1-15.71-11.75c-4.13-3.75-7.85-8.44-11.06-12.56-3-3.86-5.76-8.25-8.16-12.16-2.24-3.66-5.65-15.55-6.2-11.3-.97 7.67.35 57.3.35 57.3l-34.52 36.5zM1201 999.785c-.48-6.43-1.4-16.127-1.26-24.206.14-8.486.9-18.834 2.08-26.707 1.05-6.967 2.92-13.807 5.03-20.53 2.33-7.466 5.02-16.607 9-24.262 4.04-7.778 9.3-15.896 15.24-22.406 5.9-6.48 13.83-12.333 20.35-16.655 5.8-3.852 12.04-7.34 18.74-9.274 7.86-2.272 19.4-3.73 28.4-4.355 8.52-.59 17.6-.723 25.6.603 7.8 1.287 15.58 3.564 22.5 7.35 8.03 4.39 18.57 11.595 25.66 18.996 7.04 7.344 12.7 17.5 16.9 25.412 3.7 6.96 6.17 15.3 8.36 22.12 1.98 6.154 3.8 12.406 4.8 18.794 1.23 7.937 2.22 19.32 2.63 28.83.4 9.405.57 19.432-.16 28.235-.68 8.3-2.18 16.62-4.18 24.6-1.98 7.95-4.55 15.92-7.8 23.32-3.23 7.35-7.14 14.58-11.68 21.06-4.52 6.47-10.13 13.06-15.53 17.87-5.02 4.47-11.22 8-16.88 11.03-5.42 2.9-11.08 5.54-17.04 7.07-6.7 1.7-15.42 3.06-23.23 3.23-8.2.2-17.56-.3-25.9-2.12-8.34-1.8-16.77-4.97-24.15-8.7-7.24-3.68-14.15-8.37-20.12-13.74-5.97-5.38-11.56-12.6-15.72-18.5-3.7-5.23-6.64-10.98-9.23-16.83-2.68-6.06-5.02-13.55-6.83-19.53-1.62-5.37-3.08-11.22-4.02-16.33-.87-4.74-1.24-9.57-1.6-14.375z" class="B" stroke-dasharray="2381 2383" stroke-dashoffset="2382"/></g><g fill="none" stroke-width="1.37"><path d="M1149.86 1169.32l-138.4 69.95" class="C" stroke-dasharray="156 158" stroke-dashoffset="157"/><path d="M1011.45 1239.27L890.764 1760.9" class="D" stroke-dasharray="536 538" stroke-dashoffset="537" transform="matrix(.998419 0 0 .999602 1.40793 .700192)"/><path d="M890.764 1760.9l337.656-47.87" class="E" stroke-dasharray="342 344" stroke-dashoffset="343"/><path d="M890.764 1760.9L1239 1958.26" class="F" stroke-dasharray="401 403" stroke-dashoffset="402"/><path d="M1239 1958.26l-10.15-245.38" class="G" stroke-dasharray="246 248" stroke-dashoffset="247"/><path d="M1228.86 1712.88L1388 1113.8" class="H" stroke-dasharray="620 622" stroke-dashoffset="621"/><path d="M1388 1113.8l-147.7 843.58" class="I" stroke-dasharray="857 859" stroke-dashoffset="858"/><path d="M554.935 1643.17L953.2 1485.6" class="J" stroke-dasharray="429 431" stroke-dashoffset="430"/><path d="M953.2 1485.6l-360.732 94.85" class="K" stroke-dasharray="373 375" stroke-dashoffset="374"/><path d="M592.458 1580.46l-8.496 51.32" class="L" stroke-dasharray="53 55" stroke-dashoffset="54"/><path d="M592.458 1580.46l418.262-339.8" class="M" stroke-dasharray="539 541" stroke-dashoffset="540"/><path d="M554.657 1643.06l-81.396-145.38" class="N" stroke-dasharray="167 169" stroke-dashoffset="168"/><path d="M473.26 1497.68l594.88-366.47" class="O" stroke-dasharray="699 701" stroke-dashoffset="700"/><path d="M473.26 1497.68l161.62 48" class="P" stroke-dasharray="169 171" stroke-dashoffset="170"/><path d="M1194.47 1116.7l34.38-1.63" class="Q" stroke-dasharray="35 37" stroke-dashoffset="36"/></g></g></svg>

<!--?xml version="1.0" encoding="UTF-8" standalone="no"?-->

<svg width="100%" height="100%" viewBox="0 0 2048 2732" version="1.1" xmlns="http://www.w3.org/2000/svg" xmlns:xlink="http://www.w3.org/1999/xlink" xml:space="preserve" xmlns:serif="http://www.serif.com/" style="fill-rule: evenodd; clip-rule: evenodd; stroke-linecap: round; stroke-linejoin: round; stroke-miterlimit: 1.5;">
    <g transform="matrix(2.05441,0,0,2.05441,-941.037,-1304.52)">
        <g id="Layer1">
            <path d="M1068.89,1132.17L1069.26,712.668L1152.37,638.048L1151.25,1169.44L1068.89,1132.17Z" style="fill:rgb(1,0,1);stroke:black;stroke-width:0.49px;" class="kAUWGeMX_0"></path>
            <path d="M1163.64,1168.37L1162.71,639.381L1200.19,711.531L1200.21,886.289C1200.21,886.289 1201.72,884.942 1202.15,884.055C1202.73,882.864 1202.95,880.697 1203.67,879.14C1204.69,876.945 1206.81,873.313 1208.23,870.891C1209.47,868.757 1210.72,866.614 1212.15,864.604C1213.76,862.358 1215.77,859.654 1217.86,857.415C1220.62,854.44 1224.79,849.906 1228.78,846.75C1233.28,843.192 1239.7,839.048 1244.85,836.067C1249.6,833.316 1254.53,830.821 1259.66,828.862C1265.04,826.807 1271.97,824.947 1277.12,823.738C1281.53,822.702 1286.03,821.969 1290.55,821.608C1297.17,821.078 1308.8,820.232 1316.87,820.559C1324.29,820.859 1332.97,822.424 1338.96,823.568C1343.66,824.467 1348.29,825.811 1352.8,827.427C1358.35,829.417 1366.18,831.999 1372.27,835.511C1378.89,839.334 1386.85,845.54 1392.55,850.366C1397.59,854.633 1402.46,859.211 1406.45,864.471C1411.22,870.765 1417.18,880.969 1421.18,888.131C1424.65,894.363 1427.96,900.743 1430.42,907.443C1432.98,914.424 1434.85,922.408 1436.54,930.022C1438.28,937.871 1439.91,947.491 1440.86,954.54C1441.65,960.429 1442.09,966.374 1442.22,972.315C1442.36,978.735 1442.06,986.24 1441.72,993.058C1441.38,999.79 1440.95,1006.53 1440.18,1013.22C1439.39,1020.1 1438.6,1027.59 1436.95,1034.35C1435.33,1041 1432.86,1047.44 1430.29,1053.79C1427.65,1060.31 1424.01,1068.1 1421.11,1073.49C1418.73,1077.91 1415.86,1082.07 1412.92,1086.14C1409.08,1091.47 1403.47,1100 1398.08,1105.48C1392.92,1110.74 1386.8,1115.02 1380.61,1119.03C1374.06,1123.27 1364.48,1128.3 1358.76,1130.93C1354.81,1132.75 1350.51,1133.68 1346.31,1134.81C1341.52,1136.11 1335.56,1138.02 1330.02,1138.7C1322.24,1139.66 1308.18,1140.68 1299.6,1140.56C1292.54,1140.47 1285.47,1139.52 1278.57,1138.01C1271.53,1136.48 1263.97,1133.97 1257.36,1131.36C1251,1128.84 1244.62,1125.79 1238.93,1122.32C1233.35,1118.92 1227.68,1114.62 1223.22,1110.57C1219.09,1106.82 1215.37,1102.13 1212.16,1098.01C1209.17,1094.15 1206.4,1089.76 1204,1085.85C1201.76,1082.19 1198.35,1070.3 1197.81,1074.56C1196.84,1082.23 1198.16,1131.87 1198.16,1131.87L1163.64,1168.37ZM1200.99,999.785C1200.51,993.356 1199.6,983.658 1199.73,975.579C1199.87,967.093 1200.63,956.745 1201.81,948.872C1202.86,941.905 1204.73,935.065 1206.84,928.341C1209.17,920.875 1211.86,911.734 1215.84,904.079C1219.88,896.301 1225.15,888.183 1231.08,881.673C1236.98,875.194 1244.91,869.34 1251.43,865.018C1257.24,861.166 1263.47,857.679 1270.17,855.744C1278.03,853.472 1289.58,852.015 1298.58,851.389C1307.1,850.798 1316.17,850.666 1324.19,851.992C1331.98,853.279 1339.77,855.556 1346.7,859.343C1354.73,863.734 1365.27,870.938 1372.36,878.339C1379.4,885.683 1385.05,895.829 1389.26,903.751C1392.96,910.711 1395.43,919.051 1397.62,925.87C1399.6,932.024 1401.41,938.276 1402.41,944.664C1403.64,952.601 1404.63,963.983 1405.04,973.495C1405.45,982.9 1405.61,992.927 1404.88,1001.73C1404.2,1010.02 1402.7,1018.35 1400.7,1026.34C1398.72,1034.29 1396.15,1042.26 1392.91,1049.66C1389.68,1057.01 1385.77,1064.24 1381.23,1070.72C1376.71,1077.19 1371.1,1083.78 1365.7,1088.59C1360.68,1093.06 1354.48,1096.6 1348.82,1099.62C1343.4,1102.51 1337.74,1105.16 1331.78,1106.69C1325.07,1108.4 1316.36,1109.75 1308.55,1109.92C1300.36,1110.11 1290.99,1109.61 1282.65,1107.8C1274.31,1106 1265.88,1102.83 1258.5,1099.09C1251.26,1095.41 1244.35,1090.72 1238.38,1085.35C1232.41,1079.97 1226.82,1072.74 1222.66,1066.85C1218.97,1061.62 1216.02,1055.87 1213.43,1050.02C1210.75,1043.96 1208.41,1036.47 1206.6,1030.49C1204.98,1025.12 1203.52,1019.27 1202.58,1014.16C1201.71,1009.42 1201.34,1004.59 1200.99,999.785Z" style="fill:rgb(1,0,1);stroke:black;stroke-width:0.49px;" class="kAUWGeMX_1"></path>
        </g>
        <g id="Layer2">
            <path d="M1149.86,1169.32L1011.45,1239.27" style="fill:none;stroke:black;stroke-width:1.37px;" class="kAUWGeMX_2"></path>
            <g transform="matrix(0.998419,0,0,0.999602,1.40793,0.700192)">
                <path d="M1011.45,1239.27L890.764,1760.91" style="fill:none;stroke:black;stroke-width:1.37px;" class="kAUWGeMX_3"></path>
            </g>
            <path d="M890.764,1760.91L1228.42,1713.04" style="fill:none;stroke:black;stroke-width:1.37px;" class="kAUWGeMX_4"></path>
            <path d="M890.764,1760.91L1239.01,1958.26" style="fill:none;stroke:black;stroke-width:1.37px;" class="kAUWGeMX_5"></path>
            <path d="M1239.01,1958.26L1228.86,1712.88" style="fill:none;stroke:black;stroke-width:1.37px;" class="kAUWGeMX_6"></path>
            <path d="M1228.86,1712.88L1388.01,1113.8" style="fill:none;stroke:black;stroke-width:1.37px;" class="kAUWGeMX_7"></path>
            <path d="M1388.01,1113.8L1240.32,1957.38" style="fill:none;stroke:black;stroke-width:1.37px;" class="kAUWGeMX_8"></path>
            <path d="M554.935,1643.17L953.19,1485.61" style="fill:none;stroke:black;stroke-width:1.37px;" class="kAUWGeMX_9"></path>
            <path d="M953.19,1485.61L592.458,1580.46" style="fill:none;stroke:black;stroke-width:1.37px;" class="kAUWGeMX_10"></path>
            <path d="M592.458,1580.46L583.962,1631.78" style="fill:none;stroke:black;stroke-width:1.37px;" class="kAUWGeMX_11"></path>
            <path d="M592.458,1580.46L1010.72,1240.65" style="fill:none;stroke:black;stroke-width:1.37px;" class="kAUWGeMX_12"></path>
            <path d="M554.657,1643.06L473.261,1497.68" style="fill:none;stroke:black;stroke-width:1.37px;" class="kAUWGeMX_13"></path>
            <path d="M473.261,1497.68L1068.14,1131.21" style="fill:none;stroke:black;stroke-width:1.37px;" class="kAUWGeMX_14"></path>
            <path d="M473.261,1497.68L634.881,1545.67" style="fill:none;stroke:black;stroke-width:1.37px;" class="kAUWGeMX_15"></path>
            <path d="M1194.47,1116.7L1228.85,1115.07" style="fill:none;stroke:black;stroke-width:1.37px;" class="kAUWGeMX_16"></path>
        </g>
    </g>
<style data-made-with="vivus-instant">.kAUWGeMX_0{stroke-dasharray:1153 1155;stroke-dashoffset:1154;animation:kAUWGeMX_draw 1466ms ease-in-out 0ms forwards;}.kAUWGeMX_1{stroke-dasharray:2381 2383;stroke-dashoffset:2382;animation:kAUWGeMX_draw 1466ms ease-in-out 45ms forwards;}.kAUWGeMX_2{stroke-dasharray:156 158;stroke-dashoffset:157;animation:kAUWGeMX_draw 1466ms ease-in-out 91ms forwards;}.kAUWGeMX_3{stroke-dasharray:536 538;stroke-dashoffset:537;animation:kAUWGeMX_draw 1466ms ease-in-out 137ms forwards;}.kAUWGeMX_4{stroke-dasharray:342 344;stroke-dashoffset:343;animation:kAUWGeMX_draw 1466ms ease-in-out 183ms forwards;}.kAUWGeMX_5{stroke-dasharray:401 403;stroke-dashoffset:402;animation:kAUWGeMX_draw 1466ms ease-in-out 229ms forwards;}.kAUWGeMX_6{stroke-dasharray:246 248;stroke-dashoffset:247;animation:kAUWGeMX_draw 1466ms ease-in-out 275ms forwards;}.kAUWGeMX_7{stroke-dasharray:620 622;stroke-dashoffset:621;animation:kAUWGeMX_draw 1466ms ease-in-out 320ms forwards;}.kAUWGeMX_8{stroke-dasharray:857 859;stroke-dashoffset:858;animation:kAUWGeMX_draw 1466ms ease-in-out 366ms forwards;}.kAUWGeMX_9{stroke-dasharray:429 431;stroke-dashoffset:430;animation:kAUWGeMX_draw 1466ms ease-in-out 412ms forwards;}.kAUWGeMX_10{stroke-dasharray:373 375;stroke-dashoffset:374;animation:kAUWGeMX_draw 1466ms ease-in-out 458ms forwards;}.kAUWGeMX_11{stroke-dasharray:53 55;stroke-dashoffset:54;animation:kAUWGeMX_draw 1466ms ease-in-out 504ms forwards;}.kAUWGeMX_12{stroke-dasharray:539 541;stroke-dashoffset:540;animation:kAUWGeMX_draw 1466ms ease-in-out 550ms forwards;}.kAUWGeMX_13{stroke-dasharray:167 169;stroke-dashoffset:168;animation:kAUWGeMX_draw 1466ms ease-in-out 595ms forwards;}.kAUWGeMX_14{stroke-dasharray:699 701;stroke-dashoffset:700;animation:kAUWGeMX_draw 1466ms ease-in-out 641ms forwards;}.kAUWGeMX_15{stroke-dasharray:169 171;stroke-dashoffset:170;animation:kAUWGeMX_draw 1466ms ease-in-out 687ms forwards;}.kAUWGeMX_16{stroke-dasharray:35 37;stroke-dashoffset:36;animation:kAUWGeMX_draw 1466ms ease-in-out 733ms forwards;}@keyframes kAUWGeMX_draw{100%{stroke-dashoffset:0;}}@keyframes kAUWGeMX_fade{0%{stroke-opacity:1;}93.75%{stroke-opacity:1;}100%{stroke-opacity:0;}}</style></svg>
